%
(1001)
(T1  D=6.35 CR=0. TAPER=118deg - ZMIN=-1. - center drill)
(T2  D=2.54 CR=0. TAPER=118deg - ZMIN=-8.073 - drill)
(T3  D=4.039 CR=0. TAPER=118deg - ZMIN=-8.523 - drill)
G90 G54 G64 G50 G17 G40 G80 G94 G91.1 G49
G21 (Metric)
G30

N10(Center Drill)
T1 G43 H1 M6
S3820 M3 M8
G54
G0 X59. Y15.
G0 Z10.
G0 Z5.
G98 G81 X59. Y15. Z-1. R5. F254.
X64. Y22.
X69. Y15.
Y5.
X59.
Y-5.
X69.
Y-15.
X64. Y-22.
X59. Y-15.
X33.
X38. Y-22.
X43. Y-15.
Y-5.
X33.
Y5.
X43.
Y15.
X38. Y22.
X33. Y15.
X17.
X12. Y22.
X7. Y15.
Y5.
X17.
Y-5.
X7.
Y-15.
X12. Y-22.
X17. Y-15.
G80
G0 Z10.
M5 M9
G30

N20(Small Drill)
M1
T2 G43 H2 M6
S5000 M3 M8
G0 X59. Y-15.
G0 Z10.
G0 Z5.
G98 G83 X59. Y-15. Z-8.073 R5. Q2. F508.
X69.
Y-5.
X59.
Y5.
X69.
Y15.
X59.
X43.
X33.
Y5.
X43.
Y-5.
X33.
Y-15.
X43.
X17.
X7.
Y-5.
X17.
Y5.
X7.
Y15.
X17.
G80
G0 Z10.
M5 M9
G30

N30(Large Drill)
M1
T3 G43 H3 M6
S5000 M3 M8
G0 X59. Y-15.
G0 Z10.
G0 Z5.
G0 Z2.
G1 Z-3. F508.
G0 Z-2.
G1 Z-6. F508.
G0 Z-5.
G1 Z-8.523 F508.
G4 P0.1
G0 Z5.
G0 X69.
G0 Z2.
G1 Z-3. F508.
G0 Z-2.
G1 Z-6. F508.
G0 Z-5.
G1 Z-8.523 F508.
G4 P0.1
G0 Z5.
G0 Y-5.
G0 Z2.
G1 Z-3. F508.
G0 Z-2.
G1 Z-6. F508.
G0 Z-5.
G1 Z-8.523 F508.
G4 P0.1
G0 Z5.
G0 X59.
G0 Z2.
G1 Z-3. F508.
G0 Z-2.
G1 Z-6. F508.
G0 Z-5.
G1 Z-8.523 F508.
G4 P0.1
G0 Z5.
G0 Y5.
G0 Z2.
G1 Z-3. F508.
G0 Z-2.
G1 Z-6. F508.
G0 Z-5.
G1 Z-8.523 F508.
G4 P0.1
G0 Z5.
G0 X69.
G0 Z2.
G1 Z-3. F508.
G0 Z-2.
G1 Z-6. F508.
G0 Z-5.
G1 Z-8.523 F508.
G4 P0.1
G0 Z5.
G0 Y15.
G0 Z2.
G1 Z-3. F508.
G0 Z-2.
G1 Z-6. F508.
G0 Z-5.
G1 Z-8.523 F508.
G4 P0.1
G0 Z5.
G0 X59.
G0 Z2.
G1 Z-3. F508.
G0 Z-2.
G1 Z-6. F508.
G0 Z-5.
G1 Z-8.523 F508.
G4 P0.1
G0 Z5.
G0 X43.
G0 Z2.
G1 Z-3. F508.
G0 Z-2.
G1 Z-6. F508.
G0 Z-5.
G1 Z-8.523 F508.
G4 P0.1
G0 Z5.
G0 X33.
G0 Z2.
G1 Z-3. F508.
G0 Z-2.
G1 Z-6. F508.
G0 Z-5.
G1 Z-8.523 F508.
G4 P0.1
G0 Z5.
G0 Y5.
G0 Z2.
G1 Z-3. F508.
G0 Z-2.
G1 Z-6. F508.
G0 Z-5.
G1 Z-8.523 F508.
G4 P0.1
G0 Z5.
G0 X43.
G0 Z2.
G1 Z-3. F508.
G0 Z-2.
G1 Z-6. F508.
G0 Z-5.
G1 Z-8.523 F508.
G4 P0.1
G0 Z5.
G0 Y-5.
G0 Z2.
G1 Z-3. F508.
G0 Z-2.
G1 Z-6. F508.
G0 Z-5.
G1 Z-8.523 F508.
G4 P0.1
G0 Z5.
G0 X33.
G0 Z2.
G1 Z-3. F508.
G0 Z-2.
G1 Z-6. F508.
G0 Z-5.
G1 Z-8.523 F508.
G4 P0.1
G0 Z5.
G0 Y-15.
G0 Z2.
G1 Z-3. F508.
G0 Z-2.
G1 Z-6. F508.
G0 Z-5.
G1 Z-8.523 F508.
G4 P0.1
G0 Z5.
G0 X43.
G0 Z2.
G1 Z-3. F508.
G0 Z-2.
G1 Z-6. F508.
G0 Z-5.
G1 Z-8.523 F508.
G4 P0.1
G0 Z5.
G0 X17.
G0 Z2.
G1 Z-3. F508.
G0 Z-2.
G1 Z-6. F508.
G0 Z-5.
G1 Z-8.523 F508.
G4 P0.1
G0 Z5.
G0 X7.
G0 Z2.
G1 Z-3. F508.
G0 Z-2.
G1 Z-6. F508.
G0 Z-5.
G1 Z-8.523 F508.
G4 P0.1
G0 Z5.
G0 Y-5.
G0 Z2.
G1 Z-3. F508.
G0 Z-2.
G1 Z-6. F508.
G0 Z-5.
G1 Z-8.523 F508.
G4 P0.1
G0 Z5.
G0 X17.
G0 Z2.
G1 Z-3. F508.
G0 Z-2.
G1 Z-6. F508.
G0 Z-5.
G1 Z-8.523 F508.
G4 P0.1
G0 Z5.
G0 Y5.
G0 Z2.
G1 Z-3. F508.
G0 Z-2.
G1 Z-6. F508.
G0 Z-5.
G1 Z-8.523 F508.
G4 P0.1
G0 Z5.
G0 X7.
G0 Z2.
G1 Z-3. F508.
G0 Z-2.
G1 Z-6. F508.
G0 Z-5.
G1 Z-8.523 F508.
G4 P0.1
G0 Z5.
G0 Y15.
G0 Z2.
G1 Z-3. F508.
G0 Z-2.
G1 Z-6. F508.
G0 Z-5.
G1 Z-8.523 F508.
G4 P0.1
G0 Z5.
G0 X17.
G0 Z2.
G1 Z-3. F508.
G0 Z-2.
G1 Z-6. F508.
G0 Z-5.
G1 Z-8.523 F508.
G4 P0.1
G0 Z5.
G0 Z10.
M5 M9

G30
M30
%
