%
(1001)
(T2  D=2.54 CR=0. TAPER=118deg - ZMIN=-8.073 - drill)
(T4  D=4.191 CR=0. TAPER=118deg - ZMIN=-8.569 - drill)
(T5  D=12.7 CR=0. TAPER=82deg - ZMIN=-2.8 - countersink)
G90 G54 G64 G50 G17 G40 G80 G94 G91.1 G49
G21 (Metric)
G30

N10(Drill3)
T2 G43 H2 M6
S5000 M3 M8
G54
G0 X68. Y22.
G0 Z10.
G0 Z5.
G98 G83 X68. Y22. Z-8.073 R5. Q2. F508.
X40.
X12.
Y-22.
X40.
X68.
G80
G0 Z10.
M5 M9
G30

N20(Drill4)
M1
T4 G43 H4 M6
S5000 M3 M8
G0 X68. Y22.
G0 Z10.
G0 Z5.
G0 Z2.
G1 Z-3. F508.
G0 Z-2.
G1 Z-5.5 F508.
G0 Z-4.5
G1 Z-7.5 F508.
G0 Z-6.5
G1 Z-8.569 F508.
G4 P0.25
G0 Z5.
G0 X40.
G0 Z2.
G1 Z-3. F508.
G0 Z-2.
G1 Z-5.5 F508.
G0 Z-4.5
G1 Z-7.5 F508.
G0 Z-6.5
G1 Z-8.569 F508.
G4 P0.25
G0 Z5.
G0 X12.
G0 Z2.
G1 Z-3. F508.
G0 Z-2.
G1 Z-5.5 F508.
G0 Z-4.5
G1 Z-7.5 F508.
G0 Z-6.5
G1 Z-8.569 F508.
G4 P0.25
G0 Z5.
G0 Y-22.
G0 Z2.
G1 Z-3. F508.
G0 Z-2.
G1 Z-5.5 F508.
G0 Z-4.5
G1 Z-7.5 F508.
G0 Z-6.5
G1 Z-8.569 F508.
G4 P0.25
G0 Z5.
G0 X40.
G0 Z2.
G1 Z-3. F508.
G0 Z-2.
G1 Z-5.5 F508.
G0 Z-4.5
G1 Z-7.5 F508.
G0 Z-6.5
G1 Z-8.569 F508.
G4 P0.25
G0 Z5.
G0 X68.
G0 Z2.
G1 Z-3. F508.
G0 Z-2.
G1 Z-5.5 F508.
G0 Z-4.5
G1 Z-7.5 F508.
G0 Z-6.5
G1 Z-8.569 F508.
G4 P0.25
G0 Z5.
G0 Z10.
M5 M9
G30

N30(Drill5)
M1
T5 G43 H5 M6
S1910 M3 M8
G0 X68. Y22.
G0 Z10.
G0 Z5.
G98 G81 X68. Y22. Z-2.8 R5. F194.
X40.
X12.
Y-22.
X40.
X68.
G80
G0 Z10.
M5 M9

G30
M30
%
